build/img/my-logo.svg

<?xml version="1.0" encoding="UTF-8"?>
<svg viewBox="0 0 110 128" xmlns="http://www.w3.org/2000/svg">
<path d="M110 0H0V128H110V0Z" fill="#fff"/>
<path d="m12.791 111.39v-9.927h1.9186l2.75 7.68 2.8267-7.68h1.746v9.927h-1.2919v-8.064l-2.7308 7.398h-1.3622l-2.6285-7.418v8.084h-1.2279z" fill="#878C99"/>
<path d="m24.322 111.39v-9.927h1.407v9.927h-1.407z" fill="#878C99"/>
<path d="m27.999 111.39v-9.927h1.3175v4.883l4.0163-4.883h1.4133l-3.8819 4.736 4.5662 5.191h-1.7779l-4.336-5.031v5.031h-1.3175z" fill="#878C99"/>
<path d="m36.722 111.39v-9.927h5.5384v1.056h-4.1314v3.2h3.4662v1.037h-3.4662v3.597h4.4192v1.049l-5.8262-0.012z" fill="#878C99"/>
<path d="m48.496 111.39v-9.927h1.407v9.927h-1.407z" fill="#878C99"/>
<path d="m54.949 111.39-3.7476-9.927h1.4069l3.057 8.147 2.9675-8.128h1.2343l-3.6006 9.927-1.3175-0.019z" fill="#878C99"/>
<path d="m59.131 111.39 3.9331-9.927h1.3942l3.8372 9.927h-1.5157l-1.0808-2.74h-4.1698l-1.0936 2.74h-1.3046zm2.8012-3.796h3.3895l-1.6948-4.288-1.6947 4.288z" fill="#878C99"/>
<path d="m69.581 111.39v-9.927h1.3558l4.9884 7.68v-7.68h1.2087v9.927h-1.375l-5.0012-7.68v7.68h-1.1767z" fill="#878C99"/>
<path d="m83.562 111.64c-0.6326 0.027-1.2632-0.087-1.8469-0.333-0.5837-0.245-1.106-0.617-1.5298-1.088-0.8174-1.095-1.2591-2.425-1.2591-3.792 0-1.366 0.4417-2.697 1.2591-3.792 0.4404-0.448 0.9655-0.803 1.5447-1.046s1.2009-0.368 1.8288-0.368c0.628 0 1.2497 0.125 1.8289 0.368s1.1043 0.598 1.5447 1.046c0.828 1.097 1.2755 2.435 1.2743 3.809-0.0011 1.375-0.4508 2.712-1.2807 3.807-0.4242 0.465-0.9457 0.83-1.5271 1.071-0.5814 0.24-1.2086 0.348-1.8369 0.318zm0-1.056c0.4456 0.02 0.8892-0.07 1.2919-0.261 0.4026-0.192 0.7518-0.481 1.0169-0.84 0.5442-0.927 0.8311-1.983 0.8311-3.059 0-1.075-0.2869-2.131-0.8311-3.059-0.2808-0.342-0.6338-0.617-1.0335-0.806s-0.8364-0.287-1.2785-0.287-0.8787 0.098-1.2784 0.287c-0.3998 0.189-0.7527 0.464-1.0335 0.806-0.5442 0.928-0.8312 1.984-0.8312 3.059 0 1.076 0.287 2.132 0.8312 3.059 0.2664 0.359 0.6169 0.648 1.0205 0.84 0.4036 0.191 0.8482 0.281 1.2946 0.261z" fill="#878C99"/>
<path d="m92.285 111.39-3.7477-9.927h1.407l3.0634 8.128 2.9674-8.128h1.2343l-3.5942 9.927h-1.3302z" fill="#878C99"/>
<path d="m97.209 12.864h-84.419v84.48h84.419v-84.48z" fill="#878C99"/>
<path d="m97.209 114.73h-84.419v0.64h84.419v-0.64z" fill="#878C99"/>
<path d="m19.186 90.95v-47.264h9.2476l13.085 36.563 13.481-36.563h8.314v47.264h-6.2867v-38.4l-13.002 35.2h-6.4721l-12.624-35.283v38.483h-5.743z" fill="#fff"/>
<path d="m75.414 90.95v-47.264h6.7023v47.264h-6.7023z" fill="#fff"/>
</svg>

<svg width="110" height="128" viewBox="0 0 110 128" fill="none" xmlns="http://www.w3.org/2000/svg">
<path d="M110 0H0V128H110V0Z" fill="white"/>
<path d="M12.7907 111.386V101.459H14.7093L17.4593 109.139L20.286 101.459H22.032V111.386H20.7401V103.322L18.0093 110.72H16.6471L14.0186 103.302V111.386H12.7907Z" fill="#878C99"/>
<path d="M24.3215 111.386V101.459H25.7285V111.386H24.3215Z" fill="#878C99"/>
<path d="M27.9988 111.386V101.459H29.3163V106.342L33.3326 101.459H34.7459L30.864 106.195L35.4302 111.386H33.6523L29.3163 106.355V111.386H27.9988Z" fill="#878C99"/>
<path d="M36.7221 111.386V101.459H42.2605V102.515H38.1291V105.715H41.5953V106.752H38.1291V110.349H42.5483V111.398L36.7221 111.386Z" fill="#878C99"/>
<path d="M48.4959 111.386V101.459H49.9029V111.386H48.4959Z" fill="#878C99"/>
<path d="M54.9488 111.386L51.2012 101.459H52.6081L55.6651 109.606L58.6326 101.478H59.8669L56.2663 111.405L54.9488 111.386Z" fill="#878C99"/>
<path d="M59.1314 111.386L63.0645 101.459H64.4587L68.2959 111.386H66.7802L65.6994 108.646H61.5296L60.436 111.386H59.1314ZM61.9326 107.59H65.3221L63.6273 103.302L61.9326 107.59Z" fill="#878C99"/>
<path d="M69.5814 111.386V101.459H70.9372L75.9256 109.139V101.459H77.1343V111.386H75.7593L70.7581 103.706V111.386H69.5814Z" fill="#878C99"/>
<path d="M83.5616 111.635C82.929 111.662 82.2984 111.548 81.7147 111.302C81.131 111.057 80.6087 110.685 80.1849 110.214C79.3675 109.119 78.9258 107.789 78.9258 106.422C78.9258 105.056 79.3675 103.725 80.1849 102.63C80.6253 102.182 81.1504 101.827 81.7296 101.584C82.3088 101.341 82.9305 101.216 83.5584 101.216C84.1864 101.216 84.8081 101.341 85.3873 101.584C85.9665 101.827 86.4916 102.182 86.932 102.63C87.76 103.727 88.2075 105.065 88.2063 106.439C88.2052 107.814 87.7555 109.151 86.9256 110.246C86.5014 110.711 85.9799 111.076 85.3985 111.317C84.8171 111.557 84.1899 111.665 83.5616 111.635ZM83.5616 110.579C84.0072 110.599 84.4508 110.509 84.8535 110.318C85.2561 110.126 85.6053 109.837 85.8704 109.478C86.4146 108.551 86.7015 107.495 86.7015 106.419C86.7015 105.344 86.4146 104.288 85.8704 103.36C85.5896 103.018 85.2366 102.743 84.8369 102.554C84.4372 102.365 84.0005 102.267 83.5584 102.267C83.1163 102.267 82.6797 102.365 82.28 102.554C81.8802 102.743 81.5273 103.018 81.2465 103.36C80.7023 104.288 80.4153 105.344 80.4153 106.419C80.4153 107.495 80.7023 108.551 81.2465 109.478C81.5129 109.837 81.8634 110.126 82.267 110.318C82.6706 110.509 83.1152 110.599 83.5616 110.579Z" fill="#878C99"/>
<path d="M92.2849 111.386L88.5372 101.459H89.9442L93.0076 109.587L95.975 101.459H97.2093L93.6151 111.386H92.2849Z" fill="#878C99"/>
<path d="M97.2093 12.864H12.7907V97.344H97.2093V12.864Z" fill="#878C99"/>
<path d="M97.2093 114.733H12.7907V115.373H97.2093V114.733Z" fill="#878C99"/>
<path d="M19.1861 90.9504V43.6864H28.4337L41.5186 80.2496L55 43.6864H63.314V90.9504H57.0273V52.5504L44.0256 87.7504H37.5535L24.9291 52.4672V90.9504H19.1861Z" fill="white"/>
<path d="M75.414 90.9504V43.6864H82.1163V90.9504H75.414Z" fill="white"/>
</svg>
